X:1
T:Benedictus qui venit II
T:Philippe Rogier (c1561-1596)
T:From "Arte de canto llano" by José de Torres, 1705 edition,
T:Benedictus qui venit II
T:Copyright © 
T:Copyright © 
C:Philippe Rogier (c1561-1596)
Z:From "Arte de canto llano"
Z:by José de Torres, 1705 edition,
Z:Copyright ©
%%score [ 1 2 3 ]
L:1/8
M:2/2
K:C
V:1 treble nm="Soprano" snm="S."
V:2 treble nm="Alto" snm="A."
V:3 treble-8 transpose=-12 nm="Tenor" snm="T."
V:1
 z8 | z8 | z4 A4 | c3 BAG A2- | A2 GF ED E2 | D2 F2 A3 G | FE F4 ED | ABcA Bc d2- | d2 ^c2 d2 A2 | %9
w: ||Be-|ne- * * * di-|* * * * * ctus|qui _ ve- *|||* * nit, _|
 c3 BAG A2- | A2 GF ED E2 | A2 F2 A3 G | FE F4 ED | ABcA Bc d2- | d2 ^c2 d4 | z8 | A4 A4 | F4 G4 | %18
w: qui _ _ _ ve-|||||* * nit||in no-|mi- ne|
 F4 A4 | B4 c4- | c4 B4 | A4 z2 A2 | G2 F2 E2 AB | cBAG FD d2- | d2 c2 c4 | z4 z2 c2 | %26
w: do- *||* mi-|ni, in|no- mi- ne _ _|_ _ _ _ _ _ do-|* mi- ni,|in|
 B2 A2 G2 cd | edcB A3 B | ^c2 d4 c2 | d8 |] %30
w: no- mi- ne do- *||* * mi-|ni.|
V:2
 z4 E4- | E4 E4 | C4 D4 | C8 | C8 | D3 E F2 E2 | D2 D4 CB, | CDEF GEFG | E4 D4 | z2 A,2 F3 E | %10
w: Be-|* ne|di- *|ctus|qui|ve- * * *|nit, qui ve- *||* nit,|be- ne- di-|
 DC D4 CB, | A,G,A,B, C2 C2 | D2 C2 B,4 | A,2 A2 G2 F2 | E4 z2 DE | FEDC B,G, G2- | G2 FE F2 C2 | %17
w: |* * * * ctus qui|qui ve- *|nit in no- mi-|ne do- *||* * * mi- ni,|
 D2 F2 !courtesy!_E2 D2 | C2 z2 z2 A2- | A2 G4 F2 | E2 EF GFED | CA, E4 D2 | E2 C4 C2 | A,4 z4 | %24
w: in no- * mi-|ne, in|_ no- mi-|ne do- * * * * *|* * * ni-|ni, do- mi-|ni,|
 E4 E2 C2 | D4 C2 C2 | D4 E4- | E4 F4 | E8 | D8 |] %30
w: in no- mi-|ne do- mi-|ni, do-||mi-|ni.|
V:3
 A4 c3 B | AG A4 GF | ED E2 D2 F2 | A3 GFE F2- | F2 ED ABcA | Bc d4 ^c2 | d2 _B2 A4- | A4 z4 | z8 | %9
w: Be- ne- *|* * di- * *|* * * ctus qui|ve- * * * *|||* * nit,|_||
 z8 | z4 A2 A2 | F8 | G4 F2 F2 | G4 A4 | _B4 A2 B2 | G4 d4 | z4 z2 d2 | c2 !courtesy!_B2 A2 de | %18
w: |be- ne|di-|* ctus qui|ve- *|nit, qui _|ve- nit|in|no- mi- ne do- *|
 fedc B2 E2 | A8 | z4 z2 A2 | G2 F2 E2 AB | cBAG F4 | B3 B A2 AB | cBAG ^F2 G2 | A2 A2 G2 ^F2 | %26
w: * * * * * mi-|ni,|in|no- mi- ne do- *|* * * mi- ni,|_ do- * * *|* * * * * mi-|ni, in no- mi-|
 E2 AB cBAG | FD A4 G2 | A4 D4- | D8 |] %30
w: ne do- * * * * *||mi- ni.|_|

